silx/resources/gui/icons/folder.svg

<?xml version="1.0" encoding="UTF-8"?>
<svg version="1.1" viewBox="0 0 32 32" xml:space="preserve" xmlns="http://www.w3.org/2000/svg"><defs><filter id="c" x="-.32505" y="-.40337" width="1.6501" height="1.8067" color-interpolation-filters="sRGB"><feGaussianBlur stdDeviation="3.2938311"/></filter></defs><path d="m26.654 23.839c0.048 0.158-0.045 0.311-0.208 0.339l-18.862 3.298c-0.163 0.028-0.335-0.077-0.384-0.235l-4.84-15.719c-0.049-0.158 0.044-0.31 0.207-0.338l18.861-3.297c0.163-0.028 0.336 0.077 0.384 0.235l4.842 15.717z" filter="url(#c)" opacity=".5"/><linearGradient id="d" x1="7.2104" x2="18.261" y1="11.63" y2="20.057" gradientUnits="userSpaceOnUse"><stop stop-color="#dedfe3" offset="0"/><stop stop-color="#97989c" offset=".3104"/><stop stop-color="#626365" offset=".558"/><stop stop-color="#343435" offset=".7327"/><stop offset=".8188"/></linearGradient><path d="m25.561 22.518c0.048 0.158-0.045 0.311-0.208 0.339l-18.862 3.298c-0.163 0.028-0.335-0.077-0.384-0.235l-4.84-15.719c-0.049-0.158 0.044-0.31 0.207-0.338l18.861-3.297c0.163-0.028 0.336 0.077 0.384 0.235l4.842 15.717z" fill="url(#d)"/><path d="m25.561 22.518c0.048 0.158-0.045 0.311-0.208 0.339l-18.862 3.298c-0.163 0.028-0.335-0.077-0.384-0.235l-4.84-15.719c-0.049-0.158 0.044-0.31 0.207-0.338l18.861-3.297c0.163-0.028 0.336 0.077 0.384 0.235l4.842 15.717z" fill="none" stroke="#414042" stroke-miterlimit="10" stroke-width=".1"/><linearGradient id="e" x1="6.2393" x2="30.867" y1="17.226" y2="17.226" gradientUnits="userSpaceOnUse"><stop stop-color="#f1f2f2" offset="0"/><stop stop-color="#f2e7db" offset=".0395"/><stop stop-color="#f4d3ae" offset=".1471"/><stop stop-color="#f5c188" offset=".2586"/><stop stop-color="#f5b36a" offset=".3718"/><stop stop-color="#f6a74f" offset=".4871"/><stop stop-color="#f79e39" offset=".6051"/><stop stop-color="#f79829" offset=".727"/><stop stop-color="#f79520" offset=".8552"/><stop stop-color="#f7941e" offset="1"/></linearGradient><path d="m25.951 22.025c-0.191 0.516-0.791 1.016-1.332 1.112l-17.684 3.13c-0.542 0.097-0.828-0.247-0.637-0.763l4.854-13.077c0.191-0.516 0.791-1.016 1.333-1.112l17.685-3.134c0.541-0.096 0.828 0.248 0.637 0.763l-4.856 13.081z" fill="url(#e)"/><path d="m25.951 22.025c-0.191 0.516-0.791 1.016-1.332 1.112l-17.684 3.13c-0.542 0.097-0.828-0.247-0.637-0.763l4.854-13.077c0.191-0.516 0.791-1.016 1.333-1.112l17.685-3.134c0.541-0.096 0.828 0.248 0.637 0.763l-4.856 13.081z" fill="none" stroke="#f7941e" stroke-miterlimit="10" stroke-width=".1"/></svg>

<?xml version="1.0" encoding="UTF-8" standalone="no"?>
<!-- Created with Inkscape (http://www.inkscape.org/) -->

<svg
   xmlns:dc="http://purl.org/dc/elements/1.1/"
   xmlns:cc="http://creativecommons.org/ns#"
   xmlns:rdf="http://www.w3.org/1999/02/22-rdf-syntax-ns#"
   xmlns:svg="http://www.w3.org/2000/svg"
   xmlns="http://www.w3.org/2000/svg"
   version="1.1"
   width="100%"
   height="100%"
   viewBox="0 0 32 32"
   id="svg3031"
   xml:space="preserve"><metadata
     id="metadata3081"><rdf:RDF><cc:Work
         rdf:about=""><dc:format>image/svg+xml</dc:format><dc:type
           rdf:resource="http://purl.org/dc/dcmitype/StillImage" /><dc:title></dc:title></cc:Work></rdf:RDF></metadata><defs
     id="defs3079"><linearGradient
       x1="7.2104001"
       y1="11.63"
       x2="18.261"
       y2="20.056999"
       id="b-3"
       gradientUnits="userSpaceOnUse"><stop
         id="stop3038-6"
         style="stop-color:#dedfe3;stop-opacity:1"
         offset="0" /><stop
         id="stop3040-7"
         style="stop-color:#97989c;stop-opacity:1"
         offset="0.31040001" /><stop
         id="stop3042-5"
         style="stop-color:#626365;stop-opacity:1"
         offset="0.55800003" /><stop
         id="stop3044-3"
         style="stop-color:#343435;stop-opacity:1"
         offset="0.73269999" /><stop
         id="stop3046-5"
         style="stop-color:#000000;stop-opacity:1"
         offset="0.81879997" /></linearGradient><filter
       x="-0.32505301"
       y="-0.4033666"
       width="1.650106"
       height="1.8067333"
       color-interpolation-filters="sRGB"
       id="filter3903"><feGaussianBlur
         id="feGaussianBlur3905"
         stdDeviation="3.2938311" /></filter></defs><path
     d="m 26.653703,23.838789 c 0.048,0.158 -0.045,0.311 -0.208,0.339 l -18.8620008,3.298 c -0.163,0.028 -0.335,-0.077 -0.384,-0.235 l -4.84,-15.719 c -0.049,-0.158 0.044,-0.31 0.207,-0.338 L 21.427703,7.8867879 c 0.163,-0.028 0.336,0.077 0.384,0.235 l 4.842,15.7170011 z"
     id="path3048-6"
     style="opacity:0.5;fill:#000000;filter:url(#filter3903)" /><linearGradient
     x1="7.2104001"
     y1="11.63"
     x2="18.261"
     y2="20.056999"
     id="b"
     gradientUnits="userSpaceOnUse"><stop
       id="stop3038"
       style="stop-color:#dedfe3;stop-opacity:1"
       offset="0" /><stop
       id="stop3040"
       style="stop-color:#97989c;stop-opacity:1"
       offset="0.31040001" /><stop
       id="stop3042"
       style="stop-color:#626365;stop-opacity:1"
       offset="0.55800003" /><stop
       id="stop3044"
       style="stop-color:#343435;stop-opacity:1"
       offset="0.73269999" /><stop
       id="stop3046"
       style="stop-color:#000000;stop-opacity:1"
       offset="0.81879997" /></linearGradient><path
     d="m 25.561,22.518 c 0.048,0.158 -0.045,0.311 -0.208,0.339 L 6.491,26.155 C 6.328,26.183 6.156,26.078 6.107,25.92 L 1.267,10.201 C 1.218,10.043 1.311,9.891 1.474,9.863 L 20.335,6.566 c 0.163,-0.028 0.336,0.077 0.384,0.235 l 4.842,15.717 z"
     id="path3048"
     style="fill:url(#b)" /><path
     d="m 25.561,22.518 c 0.048,0.158 -0.045,0.311 -0.208,0.339 L 6.491,26.155 C 6.328,26.183 6.156,26.078 6.107,25.92 L 1.267,10.201 C 1.218,10.043 1.311,9.891 1.474,9.863 L 20.335,6.566 c 0.163,-0.028 0.336,0.077 0.384,0.235 l 4.842,15.717 z"
     id="path3050"
     style="fill:none;stroke:#414042;stroke-width:0.1;stroke-miterlimit:10" /><linearGradient
     x1="6.2392998"
     y1="17.226"
     x2="30.867001"
     y2="17.226"
     id="a"
     gradientUnits="userSpaceOnUse"><stop
       id="stop3053"
       style="stop-color:#f1f2f2;stop-opacity:1"
       offset="0" /><stop
       id="stop3055"
       style="stop-color:#f2e7db;stop-opacity:1"
       offset="0.0395" /><stop
       id="stop3057"
       style="stop-color:#f4d3ae;stop-opacity:1"
       offset="0.1471" /><stop
       id="stop3059"
       style="stop-color:#f5c188;stop-opacity:1"
       offset="0.2586" /><stop
       id="stop3061"
       style="stop-color:#f5b36a;stop-opacity:1"
       offset="0.37180001" /><stop
       id="stop3063"
       style="stop-color:#f6a74f;stop-opacity:1"
       offset="0.48710001" /><stop
       id="stop3065"
       style="stop-color:#f79e39;stop-opacity:1"
       offset="0.60509998" /><stop
       id="stop3067"
       style="stop-color:#f79829;stop-opacity:1"
       offset="0.727" /><stop
       id="stop3069"
       style="stop-color:#f79520;stop-opacity:1"
       offset="0.85519999" /><stop
       id="stop3071"
       style="stop-color:#f7941e;stop-opacity:1"
       offset="1" /></linearGradient><path
     d="m 25.951,22.025 c -0.191,0.516 -0.791,1.016 -1.332,1.112 L 6.935,26.267 C 6.393,26.364 6.107,26.02 6.298,25.504 l 4.854,-13.077 c 0.191,-0.516 0.791,-1.016 1.333,-1.112 L 30.17,8.181 c 0.541,-0.096 0.828,0.248 0.637,0.763 l -4.856,13.081 z"
     id="path3073"
     style="fill:url(#a)" /><path
     d="m 25.951,22.025 c -0.191,0.516 -0.791,1.016 -1.332,1.112 L 6.935,26.267 C 6.393,26.364 6.107,26.02 6.298,25.504 l 4.854,-13.077 c 0.191,-0.516 0.791,-1.016 1.333,-1.112 L 30.17,8.181 c 0.541,-0.096 0.828,0.248 0.637,0.763 l -4.856,13.081 z"
     id="path3075"
     style="fill:none;stroke:#f7941e;stroke-width:0.1;stroke-miterlimit:10" /></svg>
